X:1
T:Beyond the Blue
T:Stephen C. Foster, arr. by Henry L. Gilmour
T:Beyond the Blue
T:Public Domain
T:Public Domain
T:Public Domain
C:Stephen C. Foster, arr. by Henry L. Gilmour
Z:Public Domain
%%score ( 1 2 ) ( 3 4 )
L:1/8
M:4/4
K:G
V:1 treble 
V:2 treble 
V:3 bass 
V:4 bass 
V:1
 (GA) | [GB]2 [GB]2 [DG]2 [FA]>[=FB] | [Ec]>[DB] [Ec][Ge] [Gd]2 z [Gc] | %3
w: 1.~Be- *|the blue, far a- bove|the pass- ing gloom, A coun-|
w: 2.~The *|will break when the storms|of life shall cease, And sum-|
w: 3.~Be- *|the blue there’s a home|for you and me, For Je-|
 [GB]2 [DA]>[DG] [^CG]2 [CF]>[CG] | [CA]6 ([B,G][CA]) | [DB]2 [GB]2 [DG]2 [DA]>[=FB] | %6
w: try im- mor- tal ap- pears,|Where ros- *|es blush and the sweet-|
w: mer shall smile ev- er- more;|We’ll find *|sweet rest in that land|
w: sus will wel- come us there;|His cross *|our hope and His pre-|
 [Ec]>[DB] [Ec][Ge] [Gd]2 [DG]>[DA] | [GB]>[DG] [Gc]>[GB] [FA]3 [DF] | [DG]6 (GA) | %9
w: est lil- ies bloom, And our Fa-|ther wipes a- way all tears.|In that *|
w: of per- fect peace, In the man-|sions on the fade- less shore.|Our loved *|
w: cious blood our plea, And His right-|eous- ness our robe so fair.|Then joy *|
 [GB]2 [GB]2 [DG]2 [FA]>[=FB] | [Ec]>[DB] [Ec][Ge] [Gd]2 z [Gc] | %11
w: land, full of beau- ty,|joy and light, Will ga- ther|
w: there for our com- ing|fond- ly wait, While joy- ful-|
w: joy, let us faint not|by the way, Our tri- als|
 [GB]2 [DA]>[DG] [^CG]2 [CF]>[CG] | [CA]6 ([B,G][CA]) | [DB]2 [GB]2 [DG]2 [DA]>[=FB] | %14
w: a num- ber- less throng, Now|press- ing *|on, thro’ the sha- dows|
w: ly serv- ing the King; Some|day we’ll *|meet by the shin- ing|
w: and sor- rows soon pass; We’ll|mount a- *|bove, to the ev- er-|
 [Ec]>[DB] [Ec][Ge] [Gd]2 [DG]>[DA] | [GB]>[DG] [Gc]>[GB] [FA]3 [DF] | [DG]6 z2 || %17
w: of the night, Till they hear the|o- ver- com- er’s song. *||
w: pearl- y gate, And to- ge- ther|hap- py prais- es sing. Land|of|
w: last- ing day, Prais- ing Je- sus|by the sea of glass. *||
"^Refrain" [Gd]3 [GB] [Gc]2 [Ge]2 | [Gd] [GB]3- [GB]2 [FA]2 | [EG]3 [EA] [EG]2 [CE]2 | %20
w: |||
w: gold- en beau- ty!|O land * of|cloud- less day! Be-|
w: |||
 [DG]6 ([B,G][CA]) | [DB]2 [GB]2 [DG]2 [DA]>[=FB] | [Ec]>[DB] [Ec][Ge] [Gd]2 [DG]>[DA] | %23
w: |||
w: yond the *|blue, where the sweet- est|lil- ies bloom, And the an- gels|
w: |||
 [GB]>[DG] [Gc]>[GB] [FA]3 [DF] | [DG]6 |] %25
w: ||
w: whis- per, “Come a- way.” *||
w: ||
V:2
 D2 | x8 | x8 | x8 | x8 | x8 | x8 | x8 | x6 D2 | x8 | x8 | x8 | x8 | x8 | x8 | x8 | x8 || x8 | x8 | %19
w: ysond||||||||fair|||||||||||
w: day||||||||ones|||||||||||
w: yond||||||||all|||||||||||
 x8 | x8 | x8 | x8 | x8 | x6 |] %25
w: ||||||
w: ||||||
w: ||||||
V:3
 (B,C) | [G,D]2 [G,D]2 [G,B,]2 [G,C]>G, | [C,G,]>[C,G,] [C,G,][C,C] [G,B,]2 z [G,E] | %3
 [G,D]2 [G,C]>[G,B,] [E,A,]2 [A,,A,]>[A,,A,] | [D,F,]6 G,2 | G,2 [G,D]2 [G,B,]2 [F,C]>G, | %6
 [C,G,]>[C,G,] [C,G,][C,C] [G,B,]2 [G,B,]>[G,C] | [G,D]>[G,B,] [G,E]>[G,D] [D,C]3 [D,C] | %8
 [G,,B,]6 (B,C) | [G,D]2 [G,D]2 [G,B,]2 [G,C]>G, | [C,G,]>[C,G,] [C,G,][C,C] [G,B,]2 z [G,E] | %11
 [G,D]2 [G,C]>[G,B,] [E,A,]2 [A,,A,]>[A,,A,] | [D,F,]6 G,2 | G,2 [G,D]2 [G,B,]2 [F,C]>G, | %14
 [C,G,]>[C,G,] [C,G,][C,C] [G,B,]2 [G,B,]>[G,C] | [G,D]>[G,B,] [G,E]>[G,D] [D,C]3 [D,C] | %16
 [G,,B,]6 z2 || [G,B,]3 [G,D] [G,E]2 [G,C]2 | [G,B,] [G,D]3- [G,D]2 [D,C]2 | %19
 [E,B,]3 [E,B,] [C,C]2 [C,G,]2 | [G,,B,]6 G,2 | G,2 [G,D]2 [G,B,]2 [F,C]>G, | %22
 [C,G,]>[C,G,] [C,G,][C,C] [G,B,]2 [G,B,]>[G,C] | [G,D]>[G,B,] [G,E]>[G,D] [D,C]3 [D,C] | %24
 [G,,B,]6 |] %25
V:4
 G,2 | x15/2 G,/ | x8 | x8 | x6 G,2 | G,2 x7/2 G,/ x2 | x8 | x8 | x6 G,2 | x15/2 G,/ | x8 | x8 | %12
 x6 G,2 | G,2 x7/2 G,/ x2 | x8 | x8 | x8 || x8 | x8 | x8 | x6 G,2 | G,2 x7/2 G,/ x2 | x8 | x8 | %24
 x6 |] %25

